X: 25785
T: Mason's Apron, The
R: reel
M: 4/4
K: Gmajor
dBAB GAGE|DEGA BGGz|AcBG AGEG|Gz(3Bcd edge|
dBAB GAGE|DEGA BGGz|c2cd edge|dBAB G2z2:|
~G2dz egdG|~G2dg egdB|A2eg ~g2ec|c2eg gedz|
~G2dz egdG|~G2dg egdB|BA(3Bcd edge|dBAB G2z2:|

